X: 15781
T: Good Ship Kangaroo, The
R: reel
M: 4/4
K: Gmajor
|:G3B AG FA|G2GF ED E/F/G|A2 AB cB AF|G2 GF GA Bc|
d2 dc Bc dB|c2 cA B2 BG|ADD2 cB AF|G2 GF GA BG|
ADD2 A3 B|c4c B AF|G2 GA GA Bc|d2 dc Bc dB|
GA Bc d2 dB|c2cA B2BG|AD D2cB AF|1 G2 GF G2 c/B/A:|2 G2 GF G2 D/E/F||

